la/dragon-solid.svg

<svg xmlns="http://www.w3.org/2000/svg" viewBox="0 0 32 32" height="1em" width="1em">
  <path d="M 8 3 L 8 9 L 3 10.5 L 6.5 14 L 4 19 L 9 19 L 9 29 L 11 29 L 11 19.847656 C 12.296875 20.410156 13.660156 20.988281 16.003906 21.921875 C 16.003906 21.949219 16 21.972656 16 22 C 16 24.230469 16.699219 26.046875 17.980469 27.25 C 19.257813 28.457031 21.039063 29 23 29 L 23 27 C 21.398438 27 20.179688 26.574219 19.347656 25.796875 C 18.636719 25.125 18.15625 24.152344 18.03125 22.734375 C 19.347656 23.230469 20.53125 23.648438 21.351563 23.871094 C 21.636719 23.945313 21.929688 23.984375 22.21875 23.984375 C 24.039063 23.984375 25.800781 22.53125 26.132813 20.6875 L 27 16 L 24 18 C 19.3125 18 18.199219 15 18.199219 15 C 18.550781 14.15625 19.277344 13.558594 20.121094 13.121094 L 21 14 L 21 12.738281 C 21.1875 12.671875 21.375 12.617188 21.5625 12.5625 L 23 14 L 23 12.21875 C 23.058594 12.207031 23.125 12.191406 23.183594 12.183594 L 25 14 L 25 12 L 28 14 L 28 9.152344 C 28 7.675781 27 6.316406 25.550781 6.050781 C 25.363281 6.015625 25.179688 6 25 6 C 24.199219 6 23.484375 6.335938 22.945313 6.851563 L 21.5 3 L 20 7 L 14 7 Z M 10 6.734375 L 12.890625 8.664063 L 13.394531 9 L 23.671875 9 L 24.265625 8.34375 C 24.382813 8.214844 24.628906 8 25 8 C 25.0625 8 25.125 8.003906 25.1875 8.015625 C 25.644531 8.101563 26 8.597656 26 9.152344 L 26 10 L 25.605469 10 L 25.589844 9.992188 L 25 10 L 24.96875 10 C 24.261719 10.011719 18.03125 10.230469 16.355469 14.226563 L 16.050781 14.953125 L 16.324219 15.691406 C 16.917969 17.292969 19.199219 20 24 20 L 24.226563 20 L 24.164063 20.339844 C 24.007813 21.214844 23.097656 21.984375 22.21875 21.984375 C 22.097656 21.984375 21.980469 21.96875 21.871094 21.9375 C 18.789063 21.109375 9.894531 17.207031 9.804688 17.167969 L 9.421875 17 L 7.234375 17 L 8.289063 14.894531 L 8.933594 13.605469 L 6.78125 11.453125 L 8.578125 10.917969 L 10 10.488281 Z M 13 10 C 13 10 13.230469 12 15 12 C 16.769531 12 18 10 18 10 Z"/>
</svg>

<svg xmlns="http://www.w3.org/2000/svg" viewBox="0 0 32 32" height="1em" width="1em">
  <path d="M8 3v6l-5 1.5L6.5 14 4 19h5v10h2v-9.152c1.297.562 2.66 1.14 5.004 2.074 0 .027-.004.05-.004.078 0 2.23.7 4.047 1.98 5.25C19.258 28.457 21.04 29 23 29v-2c-1.602 0-2.82-.426-3.652-1.203-.711-.672-1.192-1.645-1.317-3.063 1.317.496 2.5.914 3.32 1.137.286.074.579.113.868.113 1.82 0 3.582-1.453 3.914-3.297L27 16l-3 2c-4.688 0-5.8-3-5.8-3 .35-.844 1.077-1.441 1.921-1.879L21 14v-1.262c.188-.066.375-.12.563-.175L23 14v-1.781c.059-.012.125-.028.184-.035L25 14v-2l3 2V9.152c0-1.476-1-2.836-2.45-3.101A2.98 2.98 0 0 0 25 6c-.8 0-1.516.336-2.055.852L21.5 3 20 7h-6Zm2 3.734 2.89 1.93.505.336h10.277l.594-.656a.995.995 0 0 1 .922-.328c.457.086.812.582.812 1.136V10h-.395l-.015-.008L25 10h-.031c-.707.012-6.938.23-8.614 4.227l-.304.726.273.738C16.918 17.293 19.2 20 24 20h.227l-.063.34c-.156.875-1.066 1.644-1.945 1.644a1.24 1.24 0 0 1-.348-.047c-3.082-.828-11.976-4.73-12.066-4.769L9.422 17H7.234l1.055-2.105.645-1.29-2.153-2.152 1.797-.535 1.422-.43ZM13 10s.23 2 2 2 3-2 3-2Z"/>
</svg>
